src/pages/Main/ui/TimeLine/images/prize.svg

<svg fill="none" height="28" viewBox="0 0 27 28" width="27" xmlns="http://www.w3.org/2000/svg" xmlns:xlink="http://www.w3.org/1999/xlink"><clipPath id="a"><path d="m0 0h27v28h-27z"/></clipPath><g clip-path="url(#a)" fill="#fff"><path d="m13.4989 17.0236c-2.1562 0-4.29976-.5006-6.19842-1.4476-.61114-.3051-1.19481-.6525-1.73614-1.0353-3.48372-2.4323-5.56434-6.35928-5.56434-10.5018 0-.19552.153357-.35335.343337-.35335h2.150433c.18998 0 .34334.15783.34334.35335 0 .19553-.15336.35336-.34334.35336h-1.801374c.114445 3.77739 2.062304 7.33334 5.258774 9.56534.51386.3628 1.06892.6938 1.64802.9835 1.80709.8999 3.84651 1.377 5.89971 1.377 2.0531 0 4.0925-.4759 5.8996-1.377.5826-.2909 1.1365-.6207 1.6446-.9788 3.2011-2.2343 5.1512-5.7903 5.2657-9.56886h-1.8014c-.19 0-.3434-.15783-.3434-.35336 0-.19552.1534-.35336.3434-.35336h2.1504c.19 0 .3433.15784.3433.35336 0 4.1437-2.0829 8.07182-5.5712 10.50652-.5356.3781-1.1181.7255-1.7315 1.0318-1.8998.947-4.0434 1.4475-6.1984 1.4475z"/><path d="m13.5 17.0236c-4.94858 0-8.97363-7.47825-8.97363-16.670243 0-.195524.15335-.353357.34333-.353357h17.2607c.19 0 .3433.157833.3433.353357 0 9.191993-4.025 16.670243-8.9737 16.670243zm-8.28581-16.316886c.09842 8.639576 3.7767 15.610086 8.28471 15.610086 4.508 0 8.1886-6.97051 8.2859-15.610086z"/><path d="m15.1023 24.6867c-.19 0-.3434-.1578-.3434-.3534v-7.3109h-2.5178v7.3109c0 .1956-.1533.3534-.3433.3534s-.3434-.1578-.3434-.3534v-7.6643c0-.1955.1534-.3533.3434-.3533h3.2045c.1899 0 .3433.1578.3433.3533v7.6643c0 .1956-.1534.3534-.3433.3534z"/><path d="m13.5001 28c-1.9421 0-3.77099-.0872-5.14777-.2462-2.02568-.2332-2.42167-.5218-2.42167-.9399 0-1.8822 3.90031-2.8987 7.56944-2.8987 3.6691 0 7.5694 1.0153 7.5694 2.8987 0 .4181-.396.7067-2.4216.9399-1.3768.159-3.2057.2462-5.1478.2462zm-6.87132-1.3016c.5276.2627 3.05112.5949 6.87132.5949s6.3437-.3322 6.8713-.5949c-.1991-1.0047-2.9653-2.0753-6.8713-2.0753-3.90603 0-6.67218 1.0706-6.87132 2.0753z"/><path d="m16.1207 11.3156c-.0549 0-.1098-.0129-.1602-.04l-2.3324-1.2627-2.3324 1.2627c-.1156.0624-.2552.0518-.3616-.0271-.1053-.0789-.1591-.2132-.1362-.3463l.4452-2.67373-1.88723-1.89282c-.09384-.09423-.12703-.23439-.08698-.36278.04006-.12838.14764-.22143.27696-.24028l2.60825-.38987 1.1662-2.43227c.0572-.12014.1774-.1967.3078-.1967.1305 0 .2507.07656.3079.1967l1.1662 2.43227 2.6082.38987c.1293.01885.2369.11307.277.24028.04.12839.0068.26855-.087.36278l-1.8872 1.89282.4452 2.67373c.0217.1331-.0309.2662-.1362.3463-.0595.0448-.1305.0671-.2015.0671zm-5.7886-4.98701 1.5187 1.52296c.0812.08128.1179.19788.0984.31331l-.3582 2.15074 1.8769-1.01528c.1007-.05418.2197-.05418.3193 0l1.8769 1.01528-.3582-2.15074c-.0195-.11425.0183-.23203.0984-.31331l1.5187-1.52296-2.0989-.31331c-.1122-.01649-.2083-.08952-.2587-.19317l-.9384-1.9576-.9385 1.9576c-.0503.10365-.1465.17668-.2586.19317l-2.099.31331z"/></g></svg>

<svg width="27" height="28" viewBox="0 0 27 28" fill="none" xmlns="http://www.w3.org/2000/svg">
    <g clip-path="url(#clip0_7_247)">
        <path d="M13.4989 17.0236C11.3427 17.0236 9.19914 16.523 7.30048 15.576C6.68934 15.2709 6.10567 14.9235 5.56434 14.5407C2.08062 12.1084 0 8.18142 0 4.0389C0 3.84338 0.153357 3.68555 0.343337 3.68555H2.49377C2.68375 3.68555 2.83711 3.84338 2.83711 4.0389C2.83711 4.23443 2.68375 4.39226 2.49377 4.39226H0.692396C0.806841 8.16965 2.7547 11.7256 5.95117 13.9576C6.46503 14.3204 7.02009 14.6514 7.59919 14.9411C9.40628 15.841 11.4457 16.3181 13.4989 16.3181C15.552 16.3181 17.5914 15.8422 19.3985 14.9411C19.9811 14.6502 20.535 14.3204 21.0431 13.9623C24.2442 11.728 26.1943 8.172 26.3088 4.39344H24.5074C24.3174 4.39344 24.164 4.23561 24.164 4.04008C24.164 3.84456 24.3174 3.68672 24.5074 3.68672H26.6578C26.8478 3.68672 27.0011 3.84456 27.0011 4.04008C27.0011 8.18378 24.9182 12.1119 21.4299 14.5466C20.8943 14.9247 20.3118 15.2721 19.6984 15.5784C17.7986 16.5254 15.655 17.0259 13.5 17.0259L13.4989 17.0236Z" fill="white"/>
        <path d="M13.5 17.0236C8.55142 17.0236 4.52637 9.54535 4.52637 0.353357C4.52637 0.157833 4.67972 0 4.8697 0H22.1304C22.3204 0 22.4737 0.157833 22.4737 0.353357C22.4737 9.54535 18.4487 17.0236 13.5 17.0236ZM5.21419 0.706714C5.31261 9.34629 8.99089 16.3168 13.4989 16.3168C18.0069 16.3168 21.6875 9.34629 21.7848 0.706714H5.21419Z" fill="white"/>
        <path d="M15.1023 24.6867C14.9123 24.6867 14.7589 24.5289 14.7589 24.3333V17.0224H12.2411V24.3333C12.2411 24.5289 12.0878 24.6867 11.8978 24.6867C11.7078 24.6867 11.5544 24.5289 11.5544 24.3333V16.669C11.5544 16.4735 11.7078 16.3157 11.8978 16.3157H15.1023C15.2922 16.3157 15.4456 16.4735 15.4456 16.669V24.3333C15.4456 24.5289 15.2922 24.6867 15.1023 24.6867Z" fill="white"/>
        <path d="M13.5001 28C11.558 28 9.72911 27.9128 8.35233 27.7538C6.32665 27.5206 5.93066 27.232 5.93066 26.8139C5.93066 24.9317 9.83097 23.9152 13.5001 23.9152C17.1692 23.9152 21.0695 24.9305 21.0695 26.8139C21.0695 27.232 20.6735 27.5206 18.6479 27.7538C17.2711 27.9128 15.4422 28 13.5001 28ZM6.62878 26.6984C7.15638 26.9611 9.6799 27.2933 13.5001 27.2933C17.3203 27.2933 19.8438 26.9611 20.3714 26.6984C20.1723 25.6937 17.4061 24.6231 13.5001 24.6231C9.59407 24.6231 6.82792 25.6937 6.62878 26.6984Z" fill="white"/>
        <path d="M16.1207 11.3156C16.0658 11.3156 16.0109 11.3027 15.9605 11.2756L13.6281 10.0129L11.2957 11.2756C11.1801 11.338 11.0405 11.3274 10.9341 11.2485C10.8288 11.1696 10.775 11.0353 10.7979 10.9022L11.2431 8.22847L9.35587 6.33565C9.26203 6.24142 9.22884 6.10126 9.26889 5.97287C9.30895 5.84449 9.41653 5.75144 9.54585 5.73259L12.1541 5.34272L13.3203 2.91045C13.3775 2.79031 13.4977 2.71375 13.6281 2.71375C13.7586 2.71375 13.8788 2.79031 13.936 2.91045L15.1022 5.34272L17.7104 5.73259C17.8397 5.75144 17.9473 5.84566 17.9874 5.97287C18.0274 6.10126 17.9942 6.24142 17.9004 6.33565L16.0132 8.22847L16.4584 10.9022C16.4801 11.0353 16.4275 11.1684 16.3222 11.2485C16.2627 11.2933 16.1917 11.3156 16.1207 11.3156ZM10.3321 6.32859L11.8508 7.85155C11.932 7.93283 11.9687 8.04943 11.9492 8.16486L11.591 10.3156L13.4679 9.30032C13.5686 9.24614 13.6876 9.24614 13.7872 9.30032L15.6641 10.3156L15.3059 8.16486C15.2864 8.05061 15.3242 7.93283 15.4043 7.85155L16.923 6.32859L14.8241 6.01528C14.7119 5.99879 14.6158 5.92576 14.5654 5.82211L13.627 3.86451L12.6885 5.82211C12.6382 5.92576 12.542 5.99879 12.4299 6.01528L10.3309 6.32859H10.3321Z" fill="white"/>
    </g>
    <defs>
        <clipPath id="clip0_7_247">
            <rect width="27" height="28" fill="white"/>
        </clipPath>
    </defs>
</svg>
